images/money.svg

<svg width="50" height="48" viewBox="0 0 50 48" fill="none" xmlns="http://www.w3.org/2000/svg">
<path d="M48.777 31.0505C48.0523 30.3568 47.1194 29.982 46.1691 29.9239C46.9246 27.8451 47.3083 25.6564 47.3083 23.3933C47.3083 19.3948 46.1045 15.5852 43.8269 12.3763C43.505 11.9226 42.8885 11.8249 42.4502 12.1582C42.0118 12.4915 41.9175 13.1293 42.2394 13.583C44.267 16.4395 45.3386 19.8319 45.3386 23.3933C45.3386 25.8753 44.8219 28.2561 43.8051 30.4761C43.5326 30.6342 43.2753 30.825 43.0401 31.05L36.3788 37.4162C36.2799 37.5109 35.8287 37.8184 34.1651 37.8184C34.1547 37.8184 34.1441 37.8184 34.1336 37.8184C31.5185 37.8111 27.5387 37.8038 24.5324 37.7981L23.1144 37.7956C22.3513 37.7956 21.7305 37.2374 21.7305 36.5515C21.7305 35.8756 22.3643 35.3046 23.1144 35.3046H29.4265C31.4405 35.3046 33.079 33.7037 33.079 31.7358C33.079 31.5524 33.0646 31.3722 33.0372 31.1962C34.6065 30.4662 35.6608 28.8445 35.6608 26.9887C35.6608 24.4443 33.6735 22.3742 31.2307 22.3742H27.4313C26.0593 22.3742 24.9433 21.2173 24.9433 19.795C24.9433 18.3745 26.0594 17.2188 27.4313 17.2188H34.6759C35.2199 17.2188 35.6608 16.7625 35.6608 16.1996C35.6608 15.6368 35.2199 15.1805 34.6759 15.1805H30.2976L30.3035 12.7272C30.3048 12.1642 29.865 11.7069 29.3211 11.7055C29.3203 11.7055 29.3194 11.7055 29.3186 11.7055C28.7758 11.7055 28.3352 12.1601 28.3337 12.722L28.3279 15.1805H27.4314C24.9734 15.1805 22.9737 17.2506 22.9737 19.795C22.9737 22.3412 24.9735 24.4125 27.4314 24.4125H31.2308C32.5645 24.4125 33.6912 25.5923 33.6912 26.9887C33.6912 28.0332 33.0587 28.9699 32.1538 29.3652C31.4843 28.6307 30.51 28.1669 29.4266 28.1669H13.971C13.5232 26.6211 13.2961 25.0189 13.2961 23.3934C13.2961 22.1002 13.439 20.8255 13.7204 19.5871C13.8384 19.6672 13.9573 19.7444 14.0771 19.8186C14.6192 20.1546 15.0388 20.3227 15.459 20.3227C15.8789 20.3227 16.2993 20.1548 16.8429 19.8191C18.7895 18.6152 20.497 16.615 21.9182 13.8739C22.9536 11.8759 23.5959 9.80928 23.8135 7.81324C25.5732 7.14483 27.4221 6.80527 29.3188 6.80527C31.5825 6.80527 33.7688 7.28369 35.8171 8.22709C35.9472 8.28701 36.0832 8.31541 36.217 8.31541C36.5941 8.31541 36.954 8.08995 37.1173 7.71037C37.3384 7.19617 37.1149 6.59375 36.6179 6.36485C34.316 5.30463 31.8601 4.76709 29.3187 4.76709C27.4489 4.76709 25.6199 5.06137 23.8629 5.64136C23.724 4.53384 23.171 4.16588 22.3381 3.70201L15.9281 0.122258C15.6362 -0.0407526 15.2845 -0.0407526 14.9926 0.122258L8.57892 3.70373C7.62072 4.23743 7.03292 4.64329 7.02052 6.19557C7.00001 8.68054 7.68449 11.3357 8.99982 13.874C9.90148 15.6131 10.9197 17.053 12.0415 18.182C11.5671 19.8644 11.3263 21.6141 11.3263 23.3933C11.3263 25.1024 11.5497 26.7889 11.9914 28.4222C11.1472 28.6481 10.3478 29.0193 9.63254 29.5157C9.31662 27.9407 7.89591 26.7487 6.19552 26.7487H3.50303C1.57149 26.7487 0 28.2866 0 30.1772V43.7708C0 45.6597 1.57149 47.1964 3.50303 47.1964H6.19552C8.12707 47.1964 9.69855 45.6597 9.69855 43.7708V43.7492L15.94 46.6459C15.9609 46.6556 15.9822 46.6645 16.0036 46.6726C17.9377 47.4075 20.4065 47.4576 27.2643 47.4942C32.4564 47.5 33.1345 47.5 34.1198 47.5C36.5993 47.5 37.8673 47.2675 39.2802 45.8287C42.2196 43.0167 45.1593 40.2071 48.101 37.3955L48.776 36.7503C49.5653 35.9968 50 34.9844 50 33.8999C50.0001 32.8155 49.5654 31.8031 48.777 31.0505ZM7.72892 43.7708C7.72892 44.5358 7.04113 45.1581 6.19562 45.1581H3.50303C2.65752 45.1581 1.96973 44.5358 1.96973 43.7708V30.1772C1.96973 29.4236 2.67188 28.787 3.50303 28.787H6.19552C7.02667 28.787 7.72882 29.4237 7.72882 30.1772L7.72892 43.7708ZM10.7357 12.9104C9.57609 10.6728 8.97248 8.35685 8.99025 6.21255C8.9923 5.95242 9.01096 5.83742 9.02111 5.79356C9.09992 5.72837 9.31808 5.6068 9.51252 5.49846L15.4604 2.17701L21.3803 5.483L21.4046 5.49654C21.5993 5.60498 21.8177 5.72665 21.8969 5.79214C21.9071 5.8363 21.9256 5.95212 21.9277 6.21417C21.9479 8.3524 21.3443 10.6679 20.1823 12.9102C18.9322 15.3214 17.4686 17.0571 15.8328 18.0689C15.6148 18.2037 15.5092 18.2557 15.4595 18.2757C15.4101 18.2556 15.3052 18.2037 15.0892 18.0698C15.0889 18.0696 15.0895 18.0699 15.0892 18.0698C13.4732 17.0704 11.9672 15.2858 10.7357 12.9104ZM47.4401 35.2527L46.7647 35.8982C43.8189 38.7138 40.8753 41.5271 37.9316 44.3431C37.9235 44.3508 37.9156 44.3585 37.9079 44.3665C37.0781 45.215 36.4803 45.4617 34.12 45.4617C33.1349 45.4617 32.4571 45.4617 27.2707 45.456C20.9939 45.4223 18.3589 45.384 16.7135 44.7708L9.69875 41.515V32.1379C10.7391 30.9222 12.2955 30.2051 13.9274 30.2051H29.4267C30.072 30.2051 30.6329 30.5376 30.9151 31.0238C30.9205 31.0341 30.9255 31.0444 30.9312 31.0543C31.0442 31.2598 31.1094 31.4907 31.1094 31.7357C31.1094 32.5797 30.3546 33.2662 29.4267 33.2662H23.1146C21.2654 33.2662 19.761 34.7399 19.761 36.5514C19.761 38.3613 21.2655 39.8338 23.1128 39.8338L24.5291 39.8364C27.5347 39.842 31.5138 39.8493 34.1289 39.8566C34.1409 39.8567 34.1526 39.8567 34.1645 39.8567C35.9144 39.8566 37.0438 39.5563 37.7159 38.9129L44.3772 32.5468C45.2072 31.7524 46.6097 31.7523 47.4407 32.5477C47.8211 32.9109 48.0306 33.3912 48.0306 33.8999C48.0304 34.4089 47.8209 34.8891 47.4401 35.2527Z" fill="#F2AB00"/>
<path d="M40.0085 10.7181C40.2606 10.7181 40.5126 10.6187 40.7049 10.4197C41.0896 10.0216 41.0896 9.37632 40.7049 8.97825L40.7022 8.97542C40.3176 8.57765 39.6953 8.57886 39.3108 8.97693C38.9261 9.37491 38.9276 10.0216 39.3121 10.4198C39.5044 10.6187 39.7565 10.7181 40.0085 10.7181Z" fill="#F2AB00"/>
<path d="M15.0284 12.5603C15.285 12.5603 15.541 12.4572 15.7338 12.2525L19.2095 8.56265C19.5891 8.15953 19.5812 7.51426 19.1916 7.12143C18.8022 6.72851 18.1786 6.7367 17.7989 7.13983L14.9971 10.1145L14.0247 9.17265C13.6276 8.78802 13.0045 8.80914 12.6326 9.22036C12.2609 9.63127 12.2815 10.2762 12.6786 10.6608L14.3556 12.2853C14.5453 12.469 14.7871 12.5603 15.0284 12.5603Z" fill="#F2AB00"/>
</svg>

<svg width="50" height="48" fill="none" xmlns="http://www.w3.org/2000/svg"><path d="M48.777 31.05a4.123 4.123 0 0 0-2.608-1.126 19.024 19.024 0 0 0 1.14-6.53c0-4-1.204-7.809-3.482-11.018a.963.963 0 0 0-1.377-.218 1.043 1.043 0 0 0-.21 1.425c2.027 2.856 3.099 6.249 3.099 9.81 0 2.482-.517 4.863-1.534 7.083a4.03 4.03 0 0 0-.765.574l-6.661 6.366c-.1.095-.55.402-2.214.402h-.031c-2.616-.007-6.595-.014-9.602-.02l-1.418-.002c-.763 0-1.384-.559-1.384-1.245 0-.675.634-1.246 1.384-1.246h6.313c2.014 0 3.652-1.601 3.652-3.57 0-.183-.014-.363-.042-.539 1.57-.73 2.624-2.352 2.624-4.207 0-2.545-1.988-4.615-4.43-4.615h-3.8c-1.372 0-2.488-1.157-2.488-2.579 0-1.42 1.116-2.576 2.488-2.576h7.245c.544 0 .985-.457.985-1.02 0-.562-.441-1.019-.985-1.019h-4.378l.006-2.453c0-.563-.439-1.02-.983-1.021h-.002c-.543 0-.984.454-.985 1.016l-.006 2.459h-.897c-2.458 0-4.457 2.07-4.457 4.614 0 2.546 2 4.617 4.457 4.617h3.8c1.334 0 2.46 1.18 2.46 2.577a2.609 2.609 0 0 1-1.537 2.376 3.682 3.682 0 0 0-2.727-1.198H13.97a17.129 17.129 0 0 1-.675-4.774c0-1.293.143-2.567.424-3.806.118.08.237.157.357.232.542.336.962.504 1.382.504.42 0 .84-.168 1.384-.504 1.947-1.204 3.654-3.204 5.075-5.945 1.036-1.998 1.678-4.065 1.896-6.06a15.434 15.434 0 0 1 5.505-1.009c2.264 0 4.45.479 6.498 1.422.13.06.266.088.4.088a.984.984 0 0 0 .9-.605 1.034 1.034 0 0 0-.5-1.345 17.326 17.326 0 0 0-7.298-1.598c-1.87 0-3.7.294-5.456.874-.139-1.107-.692-1.475-1.525-1.939l-6.41-3.58a.956.956 0 0 0-.935 0L8.579 3.704c-.958.533-1.546.94-1.558 2.492C7 8.68 7.684 11.336 9 13.874c.901 1.74 1.92 3.179 3.041 4.308a19.18 19.18 0 0 0-.715 5.211c0 1.71.224 3.396.665 5.03a7.576 7.576 0 0 0-2.358 1.093c-.316-1.575-1.737-2.767-3.437-2.767H3.503C1.571 26.749 0 28.287 0 30.177v13.594c0 1.889 1.571 3.425 3.503 3.425h2.693c1.931 0 3.503-1.536 3.503-3.425v-.022l6.241 2.897a.95.95 0 0 0 .064.027c1.934.734 4.402.785 11.26.821 5.192.006 5.87.006 6.856.006 2.48 0 3.747-.233 5.16-1.671l8.821-8.434.675-.645A3.908 3.908 0 0 0 50 33.9a3.907 3.907 0 0 0-1.223-2.85zM7.729 43.77c0 .766-.688 1.388-1.533 1.388H3.503c-.845 0-1.533-.622-1.533-1.387V30.177c0-.753.702-1.39 1.533-1.39h2.693c.83 0 1.533.637 1.533 1.39v13.594zm3.007-30.86c-1.16-2.237-1.764-4.553-1.746-6.697a2.1 2.1 0 0 1 .031-.42c.079-.065.297-.186.492-.295l5.947-3.321 5.92 3.306.025.014c.194.108.413.23.492.295.01.044.029.16.03.422.02 2.138-.583 4.454-1.745 6.696-1.25 2.411-2.713 4.147-4.35 5.159a2.814 2.814 0 0 1-.373.207 2.83 2.83 0 0 1-.37-.206c-1.616-1-3.122-2.784-4.353-5.16zM47.44 35.253l-.675.645-8.833 8.445a.748.748 0 0 0-.024.023c-.83.849-1.428 1.096-3.788 1.096-.985 0-1.663 0-6.85-.006-6.276-.034-8.911-.072-10.556-.685l-7.015-3.256v-9.377a5.585 5.585 0 0 1 4.228-1.933h15.5c.645 0 1.206.333 1.488.819l.016.03c.113.206.178.437.178.682 0 .844-.754 1.53-1.682 1.53h-6.312c-1.85 0-3.354 1.474-3.354 3.285 0 1.81 1.505 3.283 3.352 3.283l1.416.002c3.006.006 6.985.013 9.6.02h.035c1.75 0 2.88-.3 3.552-.943l6.661-6.366c.83-.795 2.233-.795 3.064 0 .38.364.59.844.59 1.353s-.21.99-.59 1.353z" fill="#F2AB00"/><path d="M40.008 10.718c.253 0 .505-.1.697-.298a1.044 1.044 0 0 0 0-1.442l-.003-.003a.96.96 0 0 0-1.391.002 1.046 1.046 0 0 0 .001 1.443.965.965 0 0 0 .697.298zM15.028 12.56a.966.966 0 0 0 .706-.308l3.475-3.69a1.044 1.044 0 0 0-.017-1.44.962.962 0 0 0-1.393.018l-2.802 2.974-.972-.941a.962.962 0 0 0-1.392.047 1.044 1.044 0 0 0 .046 1.44l1.677 1.625c.19.184.431.275.672.275z" fill="#F2AB00"/></svg>
